X: 65
U:~=!turn!
M:C|
L:1/8
K:D
{/c}dfeg fdd :: g | fdad bdad | fdad {/f}geeg |
[1 fdad bdad | {/f}geag fdd :| [2 fadg gbeg | ABcd fdd |]


